lib/healthicons/icons/solid/symbols/exercise.svg

<svg fill="none" height="48" viewBox="0 0 48 48" width="48" xmlns="http://www.w3.org/2000/svg"><path clip-rule="evenodd" d="m32 14h4v20h-4v-9h-16v9h-4v-20h4v9h16zm-26 9v-6h4v14h-4v-6h-2v-2zm38 2h-2v6h-4v-14h4v6h2z" fill="#333" fill-rule="evenodd"/></svg>

<svg width="48" height="48" viewBox="0 0 48 48" fill="none" xmlns="http://www.w3.org/2000/svg">
<path fill-rule="evenodd" clip-rule="evenodd" d="M32 14H36V34H32V25H16V34H12V14H16V23H32V14ZM6 23V17H10V31H6V25H4V23H6ZM44 25H42V31H38V17H42V23H44V25Z" fill="#333333"/>
</svg>
